!!!!SEGMENT: pl-kk--kk-i-7--010_anonim--ecce-virgo-concipiet.krn
!!!cenid: 16xx:800
!!!COM: Anonim
!!!COM-rismID: pe30004985
!!!CDT:
!!!CNT:
!!!OTL: Ecce virgo concipiet
!!!PDT:
!!!AGN: Sacred
!!!SMS-siglum: PL-Kk
!!!SMS-shelfmark: Kk.I.7
!!!SMS-shelfwork: 010 W
!!!SMS-variant:
!!!SMS-altvar:
!!!NIFC-rismSourceID: 300258087
!!!NIFC-islandoraID: pl-kk:1956
!!!URL-pdf-islandora: https://repozytorium.nifc.pl/islandora/object/pl-kk%3A1956/datastream/PDF/view
!!!URL-scan: https://polish.musicsources.pl/pl/lokalizacje/galeria/rekopisy/6140 @EN{Scan on Polish Music Sources Website} @PL{Skany w portalu Dziedzictwo Muzyki Polskiej w otwartym dostępie}
!!!ONB-nifc: UWAGA: C (skan 0008, s.10), A (0095, s.10), T(0172, s.8-9), B(0260, s.11). Następny utwór: Rorate caeli
!!!AIN: 1 alto 1 bass 1 soprn 1 tenor
!!!key:
**kern	**text	**kern	**text	**kern	**text	**kern	**text
*part4	*part4	*part3	*part3	*part2	*part2	*part1	*part1
*staff4	*staff4	*staff3	*staff3	*staff2	*staff2	*staff1	*staff1
*Ibass	*	*Itenor	*	*Ialto	*	*Isoprn	*
*I"Bassus.	*	*I"Tenor.	*	*I"Altus.	*	*I"Cantus.	*
*I'B	*	*I'T	*	*I'A	*	*I'S	*
*clefF4	*	*clefC4	*	*clefC4	*	*clefC3	*
*k[b-]	*	*k[b-]	*	*k[b-]	*	*k[b-]	*
*F:	*	*F:	*	*F:	*	*F:	*
*M2/1	*	*M2/1	*	*M2/1	*	*M2/1	*
*met(c|)	*	*met(c|)	*	*met(c|)	*	*met(c|)	*
=1-	=1-	=1-	=1-	=1-	=1-	=1-	=1-
*all\right	*	*all\right	*	*all\right	*	*all\right	*
!	!	!LO:TX:t=Coro	!	!	!	!	!
!	!	!	!	!	!	!	!
!	!	!LO:TX:t=P:problem=kreska pseudotaktowa	!	!LO:TX:t=P:problem=kreska pseudotaktowa	!	!LO:TX:t=P:problem=kreska pseudotaktowa	!
0r	.	1F	Ec-	0r	.	00r	.
.	.	2C/	-ce	.	.	.	.
*	*	*2\right	*	*	*	*	*
.	.	2.c\	Vir-	.	.	.	.
=2-	=2-	=2-	=2-	=2-	=2-	=2-	=2-
!LO:TX:t=P:problem=kreska pseudotaktowa	!	!	!	!	!	!	!
1r	.	.	.	1F	Ec-	.	.
.	.	4B-\	.	.	.	.	.
.	.	4A/	.	.	.	.	.
.	.	8G/L	.	.	.	.	.
!	!	!LO:TX:t=P:problem=kreska pseudotaktowa	!	!	!	!	!
.	.	8F/J	.	.	.	.	.
1C	Ec-	1G	.	2C/	-ce	.	.
*	*	*	*	*2\right	*	*	*
.	.	.	.	2.c\	Vir-	.	.
=3-	=3-	=3-	=3-	=3-	=3-	=3-	=3-
2FF/	-ce	2A/	-go	.	.	1f	Ec-
.	.	.	.	4B-\	.	.	.
*2\right	*	*	*	*	*	*	*
2.F\	Vir-	1F	Vir-	4A/	.	.	.
!	!	!	!	!LO:TX:t=P:problem=kreska pseudotaktowa	!	!	!
.	.	.	.	4G/	.	.	.
*	*	*	*	*lig	*	*	*
.	.	.	.	1A	.	2c/	-ce
4E\	.	.	.	.	.	.	.
*	*	*	*	*	*	*2\right	*
!	!	!LO:TX:t=P:problem=kreska pseudotaktowa	!	!	!	!	!
4D/	.	2F/	-go	.	.	2.f\	Vir-
!LO:TX:t=P:problem=kreska pseudotaktowa	!	!	!	!	!	!	!
4C/	.	.	.	.	.	.	.
=4-	=4-	=4-	=4-	=4-	=4-	=4-	=4-
1BB-	.	2.D/	con-	1B-	.	.	.
.	.	.	.	.	.	4e\	.
.	.	.	.	.	.	4d\	.
.	.	4E/	.	.	.	8c\L	.
!	!	!	!	!	!	!LO:TX:t=P:problem=kreska pseudotaktowa	!
.	.	.	.	.	.	8B-\J	.
*	*	*	*	*Xlig	*	*	*
*	*	*custos:G	*	*	*	*	*
!	!	!LO:TX:t=P:problem=kreska pseudotaktowa	!	!LO:TX:t=P:problem=kreska pseudotaktowa	!	!	!
2FF/	.	1F	.	1A	-go	2c\	.
!LO:TX:t=P:problem=kreska pseudotaktowa	!	!	!	!	!	!LO:TX:t=P:problem=kreska pseudotaktowa	!
2F\	-go	.	.	.	.	2f\	-go
!	!	!LO:LB:g=original	!	!	!	!	!
=5-	=5-	=5-	=5-	=5-	=5-	=5-	=5-
2.C/	con-	1G	.	1c	con-	4e\	con-
.	.	.	.	.	.	4f\	-ci-
.	.	.	.	.	.	1g	-pi-
4BB-/	.	.	.	.	.	.	.
4AA/	.	2.A/	-ci-	2.c\	-ci-	.	.
4GG/	.	.	.	.	.	.	.
!	!	!	!	!	!	!LO:TX:t=P:problem=# above	!
4.AA/	-ci-	.	.	.	.	2f#X\	.
!	!	!LO:TX:t=P:problem=kreska pseudotaktowa	!	!	!	!	!
.	.	4A/	-pi-	4c\	-pi-	.	.
!LO:TX:t=P:problem=kreska pseudotaktowa	!	!	!	!	!	!	!
8AA/	-pi-	.	.	.	.	.	.
=6-	=6-	=6-	=6-	=6-	=6-	=6-	=6-
!	!	!	!	!LO:TX:t=P:problem=kreska pseudotaktowa	!	!LO:TX:t=P:problem=kreska pseudotaktowa	!
1GG	-et	2D/	-et	1B-	-et	1g	-et
.	.	2d\	et	.	.	.	.
2r	.	4G/	Pa-	0r	.	00r	.
.	.	4A/	.	.	.	.	.
!LO:TX:t=P:problem=kreska pseudotaktowa	!	!	!	!	!	!	!
2G\	et	4B-/	.	.	.	.	.
!	!	!LO:TX:t=P:problem=kreska pseudotaktowa	!	!	!	!	!
.	.	4G/	.	.	.	.	.
=7-	=7-	=7-	=7-	=7-	=7-	=7-	=7-
4D/	pa-	2.A\	.	.	.	.	.
4E\	.	.	.	.	.	.	.
4F\	.	.	.	.	.	.	.
!LO:TX:t=P:problem=kreska pseudotaktowa	!	!	!	!	!	!	!
4D/	.	4B-\	.	.	.	.	.
2E\	.	2c\	.	1r	.	.	.
4E\	-ri-	4c\	-ri-	.	.	.	.
!LO:TX:t=P:problem=kreska pseudotaktowa	!	!LO:TX:t=P:problem=kreska pseudotaktowa	!	!	!	!	!
4G\	-et	4B-\	-et	.	.	.	.
=8-	=8-	=8-	=8-	=8-	=8-	=8-	=8-
4G\	.	2.A/	Fi-	2r	.	.	.
!LO:TX:t=P:problem=# above	!	!	!	!	!	!	!
8F#X\L	fi-	.	.	.	.	.	.
8E\J	.	.	.	.	.	.	.
!	!	!	!	!LO:TX:t=P:problem=kreska pseudotaktowa	!	!	!
4.F#\	.	.	.	2d\	et	.	.
.	.	4A/	-li-	.	.	.	.
!LO:TX:t=P:problem=kreska pseudotaktowa	!	!	!	!	!	!	!
8F#\	-li-	.	.	.	.	.	.
*custos:D	*	*	*	*	*	*	*
!LO:TX:t=P:problem=kreska pseudotaktowa	!	!LO:TX:t=P:problem=kreska pseudotaktowa	!	!	!	!	!
1G	-um	1G	-um	4G/	pa-	2g\	et
.	.	.	.	4A/	.	.	.
.	.	.	.	4B-/	.	4d\	pa-
!	!	!	!	!LO:TX:t=P:problem=kreska pseudotaktowa	!	!LO:TX:t=P:problem=kreska pseudotaktowa	!
.	.	.	.	4G/	.	4e\	.
!LO:LB:g=original	!	!	!	!	!	!	!
=9-	=9-	=9-	=9-	=9-	=9-	=9-	=9-
!LO:TX:t=P:problem=kreska pseudotaktowa	!	!	!	!	!	!	!
0r	.	0r	.	4A/	.	4fny\	.
.	.	.	.	4B-\	.	4d\	.
!	!	!	!	!	!	!LO:TX:t=P:problem=kreska pseudotaktowa	!
.	.	.	.	2.c\	.	2.e\	.
.	.	.	.	4c\	-ri-	4f\	-ri-
!	!	!	!	!LO:TX:t=P:problem=kreska pseudotaktowa	!	!	!
.	.	.	.	2B-\	-et	4g\	-et
.	.	.	.	.	.	2g\	Fi-
=10-	=10-	=10-	=10-	=10-	=10-	=10-	=10-
1D	et	1r	.	2.A/	Fi-	.	.
!	!	!	!	!	!	!LO:TX:t=P:problem=# above	!
.	.	.	.	.	.	8f#X\L	.
.	.	.	.	.	.	8e\J	.
!	!	!	!	!	!	!LO:TX:t=P:problem=# above	!
.	.	.	.	.	.	4.f#X\	.
.	.	.	.	4A/	-li-	.	.
.	.	.	.	.	.	8f#\	-li-
!	!	!	!	!LO:TX:t=P:problem=kreska pseudotaktowa	!	!LO:TX:t=P:problem=kreska pseudotaktowa	!
4GG/	pa-	2d\	et	1B-	-um	1g	-um
4AA/	.	.	.	.	.	.	.
4BB-/	.	4D/	Pa-	.	.	.	.
!LO:TX:t=P:problem=kreska pseudotaktowa	!	!LO:TX:t=P:problem=kreska pseudotaktowa	!	!	!	!	!
4GG/	.	4E/	.	.	.	.	.
=11-	=11-	=11-	=11-	=11-	=11-	=11-	=11-
4D\	.	4F/	.	1r	.	1r	.
4E\	.	4G/	.	.	.	.	.
4Fny\	.	4A/	.	.	.	.	.
8E\L	.	4B-/	.	.	.	.	.
!LO:TX:t=P:problem=kreska pseudotaktowa	!	!	!	!	!	!	!
8D\J	.	.	.	.	.	.	.
4C/	.	4c\	.	2e-X\	et	2r	.
4D/	.	8B-\L	.	.	.	.	.
.	.	8A\J	.	.	.	.	.
*	*	*	*	*	*	*custos:d	*
!	!	!	!	!	!	!LO:TX:t=P:problem=kreska pseudotaktowa	!
4E-X\	.	4G/	.	4B-\	Pa-	2g\	et
!	!	!LO:TX:t=P:problem=kreska pseudotaktowa	!	!LO:TX:t=P:problem=kreska pseudotaktowa	!	!	!
8D/L	.	4A/	.	4c\	.	.	.
8C/J	.	.	.	.	.	.	.
!	!	!	!	!	!	!LO:LB:g=original	!
=12-	=12-	=12-	=12-	=12-	=12-	=12-	=12-
2.BB-/	.	4B-/	.	2.d\	.	4d\	pa-
.	.	8A/L	.	.	.	4e\	.
.	.	8G/J	.	.	.	.	.
.	.	4F/	.	.	.	2.fny\	.
!	!	!LO:TX:t=P:problem=kreska pseudotaktowa	!	!	!	!	!
8AA/	-ri-	4G/	.	8c\	-ri-	.	.
*	*	*	*	*custos:c	*	*	*
!	!	!	!	!LO:TX:t=P:problem=kreska pseudotaktowa	!	!	!
!LO:TX:t=P:problem=kreska pseudotaktowa	!	!	!	!	!	!	!
8GG/	-et	.	.	8B-\	-et	.	.
!	!	!	!	!LO:LB:g=original	!	!	!
1.FF	fi-	4.A/	.	2c\	Fi-	.	.
.	.	.	.	.	.	4e-X\	-ri-
.	.	8A/	-ri-	.	.	.	.
*	*	*custos:F	*	*	*	*	*
!	!	!LO:TX:t=P:problem=kreska pseudotaktowa	!	!	!	!	!
!	!	!	!	!	!	!LO:TX:t=P:problem=kreska pseudotaktowa	!
.	.	2F/	-et	1B-\	-li-	2d\	-et
!	!	!LO:PB:g=original	!	!	!	!	!
=13-	=13-	=13-	=13-	=13-	=13-	=13-	=13-
.	.	2.F/	Fi-	.	.	2.c/	Fi-
!LO:TX:t=P:problem=kreska pseudotaktowa	!	!	!	!LO:TX:t=P:problem=kreska pseudotaktowa	!	!	!
2FF/	-li-	.	.	2A/	.	.	.
!	!	!LO:TX:t=P:problem=kreska pseudotaktowa	!	!	!	!LO:TX:t=P:problem=kreska pseudotaktowa	!
.	.	4F/	-li-	.	.	4c/	-li-
!	!	!LO:TX:t=P:problem=cezura na 2. linii	!	!LO:TX:t=P:problem=cezura na 3. linii	!	!	!
2BB-;/	-um	4F,/	-um	4B-;,\	-um	4d\	-um
.	.	2B-\	et	2d\	et	8B-/L	et
.	.	.	.	.	.	8c/J	.
!LO:TX:t=P:problem=kreska pseudotaktowa	!	!	!	!	!	!	!
2r	.	.	.	.	.	8d/L	.
.	.	.	.	.	.	8B-/J	.
!	!	!LO:TX:t=P:problem=kreska pseudotaktowa	!	!LO:TX:t=P:problem=kreska pseudotaktowa	!	!	!
.	.	4A/	Vo-	4c\	Vo-	8f\	Vo-
!	!	!	!	!	!	!LO:TX:t=P:problem=kreska pseudotaktowa	!
.	.	.	.	.	.	8e-X\	.
=14-	=14-	=14-	=14-	=14-	=14-	=14-	=14-
4r	.	4.B-\	-ca-	4.B-\	-ca-	4.d\	-ca-
2B-\	Et	.	.	.	.	.	.
.	.	8B-\	-bi-	8B-\	-bi-	8e-\	-bi-
!	!	!	!	!	!	!LO:TX:t=P:problem=kreska pseudotaktowa	!
.	.	4F/	-tur	4c\	-tur	(2f\	-tur
!LO:TX:t=P:problem=kreska pseudotaktowa	!	!LO:TX:t=P:problem=kreska pseudotaktowa	!	!LO:TX:t=P:problem=kreska pseudotaktowa	!	!	!
4A\	Vo-	4F/	Vo-	4f\	Vo-	.	.
4.B-\	-ca-	4.BB-/	-ca-	4.d\	-ca-	2f\)	.
8B-\	-bi-	8BB-/	-bi-	8d\	-bi-	.	.
4A\	-tur	4F/	-tur	4c\	-tur	4r	.
*	*ij	*	*	*	*	*	*
!	!	!	!	!LO:TX:t=P:problem=kreska pseudotaktowa	!	!LO:TX:t=P:problem=nuta skreślona	!
2F\	Et	8F/L	et	4c\	Vo-	2f\	et
.	.	8G/J	.	.	.	.	.
=15-	=15-	=15-	=15-	=15-	=15-	=15-	=15-
!	!	!LO:TX:a:t=P:problem=cross-measure beam	!	!	!	!	!
.	.	8A/L	.	4.c\	-ca-	.	.
.	.	8F/J	.	.	.	.	.
4Eny\	Vo-	8c\L	Vo-	.	.	4g\	Vo-
.	.	8B-\J	.	8c\	-bi-	.	.
4.F\	-ca-	4.A/	-ca-	4c\	-tur	4.f\	-ca-
.	.	.	.	2F/	no-	.	.
!LO:TX:t=P:problem=kreska pseudotaktowa	!	!LO:TX:t=P:problem=kreska pseudotaktowa	!	!	!	!LO:TX:t=P:problem=kreska pseudotaktowa	!
8F\	-bi-	8A/	-bi-	.	.	8f\	-bi-
2C/	-tur	2c\	-tur	.	.	4g\	-tur
*	*Xij	*	*	*	*	*	*
.	.	.	.	4E/	.	4g\	Vo-
!	!	!	!	!	!	!LO:TX:t=P:problem=kreska pseudotaktowa	!
4r	.	4r	.	8F/L	.	2.a\	-ca-
.	.	.	.	8G/	.	.	.
8FF/L	et	2F/	et	8A/	.	.	.
!LO:TX:t=P:problem=kreska pseudotaktowa	!	!	!	!LO:TX:t=P:problem=kreska pseudotaktowa	!	!	!
8GG/J	.	.	.	8B-/J	.	.	.
=16-	=16-	=16-	=16-	=16-	=16-	=16-	=16-
(8AA/L	Vo-	.	.	4.c\	.	.	.
8FF/J)	.	.	.	.	.	.	.
(8C/L	-ca-	4E/	Vo-	.	.	4g\	-bi-
*custos:AA	*	*	*	*	*	*	*
8BB-/J)	.	.	.	8c\	-men	.	.
!LO:LB:g=original	!	!	!	!LO:TX:t=P:problem=kreska pseudotaktowa	!	!LO:TX:t=P:problem=kreska pseudotaktowa	!
8AA/L	.	4.F/	-ca-	2c\	e-	2a\	-tur
8FF/J	.	.	.	.	.	.	.
!LO:TX:t=P:problem=kreska pseudotaktowa	!	!	!	!	!	!	!
4.F\	.	.	.	.	.	.	.
!	!	!LO:TX:t=P:problem=kreska pseudotaktowa	!	!	!	!	!
.	.	8F/	-bi-	.	.	.	.
.	.	2C/	-tur	2c\	-ius	2.g\	no-
8F\	-bi-	.	.	.	.	.	.
4E\	-tur	.	.	.	.	.	.
*	*	*	*	*	*ij	*	*
!LO:TX:t=P:problem=kreska pseudotaktowa	!	!	!	!LO:TX:t=P:problem=kreska pseudotaktowa	!	!	!
2.G\	no-	4r	.	2B-\	no-	.	.
!	!	!	!	!	!	!LO:TX:t=P:problem=kreska pseudotaktowa	!
.	.	8G/L	no-	.	.	4d\	-men
!	!	!LO:TX:t=P:problem=kreska pseudotaktowa	!	!	!	!	!
.	.	8A/J	.	.	.	.	.
=17-	=17-	=17-	=17-	=17-	=17-	=17-	=17-
.	.	8B-\L	.	4B-\	-men	2d\	e-
.	.	8G\J	.	.	.	.	.
!LO:TX:t=P:problem=# above	!	!	!	!	!	!	!
4F#X\	.	8d\	.	4A/	.	.	.
.	.	8c\	-men	.	.	.	.
!LO:TX:t=P:problem=kreska pseudotaktowa	!	!LO:TX:t=P:problem=kreska pseudotaktowa	!	!LO:TX:t=P:problem=kreska pseudotaktowa	!	!LO:TX:t=P:problem=kreska pseudotaktowa	!
2G\	-men	2B-\	e-	2G/	e-	2d\	-i(us)
4D/	e-	4d\	-ius	4A/	-ius	4r	.
2BB-/	.	8d\L	no-	2B-\	no-	8B-/L	No-
*	*	*custos:B	*	*	*	*custos:d	*
.	.	8c\J	.	.	.	8c/J	.
!	!	!LO:LB:g=original	!	!	!	!LO:LB:g=original	!
.	.	4B-\	.	.	.	8d/L	.
.	.	.	.	.	.	8B-/J	.
!LO:TX:t=P:problem=kreska pseudotaktowa	!	!LO:TX:t=P:problem=kreska pseudotaktowa	!	!LO:TX:t=P:problem=kreska pseudotaktowa	!	!	!
4AA/	-ius	4F/	-men	4c\	-men	8f\	.
.	.	.	.	.	.	8e-X\	-men
=18-	=18-	=18-	=18-	=18-	=18-	=18-	=18-
!	!	!	!	!	!	!LO:TX:t=P:problem=kreska pseudotaktowa	!
1BB-	no-	1F	e-	4c\	e-	1d	e-
.	.	.	.	8B-\L	.	.	.
.	.	.	.	8A\J	.	.	.
*	*	*	*	*custos:A	*	*	*
.	.	.	.	2B-\	.	.	.
!	!	!	!	!LO:LB:g=original	!	!	!
2Fny\	-me(n)	2F/	-ius	2A/	-ius	2c\	-ius
*	*	*	*	*	*Xij	*	*
!LO:TX:t=P:problem=kreska pseudotaktowa	!	!LO:TX:t=P:problem=kreska pseudotaktowa	!	!LO:TX:t=P:problem=kreska pseudotaktowa	!	!LO:TX:t=P:problem=kreska pseudotaktowa	!
2E-X\	e-	2G/	Em-	2c\	Em-	2e-X\	Em-
=19-	=19-	=19-	=19-	=19-	=19-	=19-	=19-
!	!	!	!	!LO:N:acc=#	!	!	!
2.G\	-ius	2.G/	-ma-	4Bn\	-ma-	4d\	-ma-
.	.	.	.	4e-X\	.	2c/	.
.	.	.	.	4.d\	.	.	.
!	!	!	!	!	!	!LO:N:acc=#	!
!	!	!	!	!	!	!LO:TX:b:t=P:problem=# below	!
!	!	!	!	!	!	!LO:TX:t=P:problem=kreska pseudotaktowa	!
4GG/	Em-	4G/	-nu-	.	.	4Bn/	-nu-
!	!	!	!	!LO:TX:t=P:problem=kreska pseudotaktowa	!	!	!
.	.	.	.	8d\	-nu-	.	.
!	!	!	!	!LO:N:acc=#	!	!	!
2C/	-ma-	2G/	-el	2en\	-el	2c/	-el
*	*	*	*ij	*	*	*	*
!LO:TX:t=P:problem=kreska pseudotaktowa	!	!LO:TX:t=P:problem=kreska pseudotaktowa	!	!LO:TX:t=P:problem=kreska pseudotaktowa	!	!LO:TX:t=P:problem=kreska pseudotaktowa	!
2BB-/	-nu-	2B-\	Em-	2d\	Em-	2g\	Em-
=20-	=20-	=20-	=20-	=20-	=20-	=20-	=20-
2.D/	-el	4F#X/	-ma-	4A/	-ma-	4a\	-ma-
.	.	4B-\	.	2G/	.	2d\	.
.	.	4.A/	.	.	.	.	.
!	!	!	!	!LO:TX:t=P:problem=# above	!	!	!
!	!	!	!	!LO:TX:t=P:problem=kreska pseudotaktowa	!	!LO:TX:t=P:problem=kreska pseudotaktowa	!
4D/	Em-	.	.	4F#X/	-nu-	4d\	-nu-
.	.	8A/	-nu-	.	.	.	.
!	!	!LO:N:acc=#	!	!	!	!	!
!	!	!LO:TX:t=P:problem=kreska pseudotaktowa	!	!	!	!	!
2GG/	-ma-	1Bn	-el	2G/	-el	2d\	-el
!LO:TX:t=P:problem=kreska pseudotaktowa	!	!	!	!	!	!LO:TX:t=P:problem=kreska pseudotaktowa	!
*	*	*	*Xij	*	*ij	*	*ij
2GG/	-nu-	.	.	1G/	Em-	2g\	Em-
=21-	=21-	=21-	=21-	=21-	=21-	=21-	=21-
2.C/	-el	2r	.	.	.	2.eny\	-ma-
!	!	!LO:TX:t=P:problem=kreska pseudotaktowa	!	!LO:TX:t=P:problem=kreska pseudotaktowa	!	!	!
.	.	2G/	Em-	2.c\	-ma-	.	.
*	*ij	*	*	*	*	*	*
!LO:TX:t=P:problem=kreska pseudotaktowa	!	!	!	!	!	!LO:TX:t=P:problem=kreska pseudotaktowa	!
4BB-/	Em-	.	.	.	.	4e\	-nu-
2AAn/	-ma-	2A/	-ma-	.	.	2f\	-el
.	.	.	.	4c\	-nu-	.	.
!LO:TX:t=P:problem=kreska pseudotaktowa	!	!	!	!	!	!LO:TX:t=P:problem=kreska pseudotaktowa	!
2EE/	.	2.G/	.	4c\	-el	2g\	Em-
.	.	.	.	4B-y\	Em-	.	.
=22-	=22-	=22-	=22-	=22-	=22-	=22-	=22-
2.FF/	.	.	.	2.A/	-ma-	2.c/	-ma-
.	.	8Fny/L	.	.	.	.	.
.	.	8E/J	.	.	.	.	.
.	.	4.F/	.	.	.	.	.
!	!	!	!	!LO:TX:t=P:problem=kreska pseudotaktowa	!	!	!
4FF/	-nu-	.	.	4A/	-nu-	4c/	-nu-
!	!	!LO:TX:t=P:problem=kreska pseudotaktowa	!	!	!	!	!
.	.	8F/	-nu-	.	.	.	.
!LO:N:vis=0	!	!LO:TX:b:t=Laus Deo.	!	!	!	!LO:TX:b:t=Laus Deo	!
1C	el	1E;	-el.	1G;;	-el	1c;	-el
*	*Xij	*	*	*	*Xij	*	*Xij
==	==	==	==	==	==	==	==
*-	*-	*-	*-	*-	*-	*-	*-
!!!system-decoration: [s1,s2,s3,s4]
!!!ENC: Marta Lawrence
!!!END: 2021-03-06
!!!ENC: Kamil Watkowski
!!!END: 2021-02-24
